X:376
T:Air in L’Offronde et Terpsichord. RH.376
R:air
S:Rev.R.Harrison’s MS,c1815,Cumbria
N:Hornpipe? reel?
O:England
A:Temple Sowerby,Cumbria
Z:vmp.Simon Wilson. Review PJH, 2008.
M:2/4
L:1/16
Q:1/4=80
K:G
dc|BdcB AcBA|GFGB G2GB|^cded =cBAG|A^GAB A2dc|!
BcdB AcBA|GFGB A2ce|edBG dcAF|GFGB G2:|!
|:AB|cBcd BABc|A2d2d2 AB|cBcd BABc|\
A4z2 dc|BdcB AcBA|!
GFGB A2ce|edBG dcAF|GG/F/GB dcAB|\
G>GFB dcAB|G2z2 G2z2|G4 z2|]

